packages/sources/icons/src/vitamix/ruler-fill.svg

<svg width="16" height="16" viewBox="0 0 16 16" xmlns="http://www.w3.org/2000/svg"><path d="M3.28604 8.80466L4.70004 10.2187L5.64271 9.276L4.22938 7.862L5.64271 6.448L7.52871 8.33333L8.47138 7.39066L6.58671 5.50466L8.00004 4.09066L9.41404 5.50466L10.3574 4.562L8.94271 3.148L10.8287 1.262C11.089 1.00174 11.511 1.00174 11.7714 1.262L15.0714 4.562C15.3316 4.82233 15.3316 5.24433 15.0714 5.50466L5.17138 15.4047C4.91104 15.6649 4.48904 15.6649 4.22871 15.4047L0.928711 12.1047C0.668457 11.8443 0.668457 11.4223 0.928711 11.162L3.28604 8.80466Z"/></svg>

<svg width="16" height="16" xmlns="http://www.w3.org/2000/svg"><path d="M3.286 8.805 4.7 10.219l.943-.943-1.414-1.414 1.414-1.414 1.886 1.885.942-.942-1.884-1.886L8 4.09l1.414 1.414.943-.943-1.414-1.414 1.886-1.886c.26-.26.682-.26.942 0l3.3 3.3c.26.26.26.682 0 .943l-9.9 9.9a.667.667 0 0 1-.942 0l-3.3-3.3a.667.667 0 0 1 0-.943l2.357-2.357Z"/></svg>
